!!!OTL: Umqokozo
!!!XEN: A String of Beads
!!!CNT: African -- sub-Saharan -- Xhosa
**kern
*k[b-]
*M4/4
*MM176
4f
4f
=1
8f
[8f
8f]
[8e-
4e-]
4d
=2
4c
4r
4f
4f
=3
8en
[8e
8e]
[8d
4d]
4d
=4
4c
4r
!! Repeating from the beginning.
4f
4f
=5
8f
[8f
8f]
[8e-
4e-]
4d
=6
4c
4r
4f
4f
=7
8en
[8e
8e]
[8d
4d]
4d
=8
4c
4r
!! Continuing
4f
4f
=9
8f
[8f
8f]
[8g
4g]
4d
=10
4c
8c
8c
4c
4r
=11
2r
4cc
4b-
=12
4a
8f
8f
4f
4g
=13
8f
[8f
8e-_
4e-]
4d
=14
4c
8c
8c
4c
4r
=15
2r
4f
4g
=16
4a
8f
8f
4f
4g
=17
(8f
4.e-)
8d
4.e-
=18
2c
2r
=19
2r
4f
4g
=20
4a
8f
8f
4f
4g
=21
(8f
4.e-)
8d
4.e-
=22
2c
2r
=23
2r
4cc
4b-
=24
4a
8f
8f
4f
4g
=25
(8f
4.e-)
8d
4.e-
=26
2c
2r
!! page 81
=27
2r
4cc
4b-
=28
4a
8f
8f
4f
4g
=29
8f
[8f
8f]
[8e-
4e-]
4d
=30
4c
8c
8c
4c
4r
=31
1r
=32
4r
8f
8f
4a
4a
=33
8a
[8a
8a]
[8g
4g]
4f
=34
4d
4r
4b-
4b-
=35
4a
8a
(8f
4g)
4g
!! Repeat the following section.
=36
4f
8f
8f
4a
4a
=37
8a
[8a
8a]
[8g
4g]
4f
=38
4d
4r
4b-
4b-
=39
4a
8a
(8f
4g)
4g
!! Repeating.
=40
4f
8f
8f
4a
4a
=41
8a
[8a
8a]
[8g
4g]
4f
=42
4d
4r
4b-
4b-
=43
4a
8a
(8f
4g)
4g
!! Continuing.
4f
8f
8f
4a
4a
=44
8a
[8a
8a]
[8g
4g]
4f
=45
4d
8d
8d
4d
4r
=46
2r
4cc
4b-
=47
4a
8f
8f
4f
4g
=48
8f
[8f
8f]
[8e-
4e-]
4d
=49
4c
8c
8c
4c
4r
=50
2r
4f
4g
=51
4a
8f
8f
4f
4g
=52
8f
[8f
8f]
[8e-
4e-]
4d
=53
4c
8c
8c
2c
=54
2r
4r
[4f
=55
2f;]
==
*-
!!!OPR: Miriam Makeba, "The World of African Song"
!!!PPP: Chicago
!!!PPR: Quadrangle Press (12 East Delaware Place)
!!!PDT: 1971///
!!!PPG: 80-81
!!!ENC: David Huron
!!!EMD: 1998/9/29/ Paul von Hippel updated this file in the following ways:
!!!EMD:  (1) changed the representation of slurs from curly braces to parentheses 
!!!EMD:  (2) changed freeform comments into reference records and tandem interpretations
!!!EMD:  (3) changed final barline from triple (===) to double (==)
!!!EMD:  (4) added key signature from printed source
!!!EEV: Version 2.0
